icons/frightened.svg

<svg id="icon" style="touch-action: none;" clip-rule="evenodd" fill-rule="evenodd" stroke-linejoin="round" stroke-miterlimit="2" viewBox="0 0 500 500" xmlns="http://www.w3.org/2000/svg"><path d="m.803 8.044c-.002-.082-.003-.163-.003-.244 0-4.305 3.226-7.8 7.2-7.8s7.2 3.495 7.2 7.8c0 .09-.001.179-.004.267.043.004.086.013.129.026.581.176.805 1.134.5 2.137-.304 1.004-1.023 1.675-1.604 1.499h-.001c-.178.329-.377.644-.597.94-.442 2.869-2.751 5.931-5.623 5.931s-5.181-3.062-5.623-5.931c-.225-.303-.429-.626-.61-.964l-.004.001c-.581.177-1.3-.495-1.604-1.498-.305-1.004-.08-1.962.5-2.138.048-.014.096-.023.144-.026zm9.497 6.456c0 1.3-1 0-2.3 0s-2.3 1.3-2.3 0 1-2.3 2.3-2.3 2.3 1 2.3 2.3zm-3.9-5.6c0 .9-.7 1-1.5 1s-1.5-.1-1.5-1 .6-1.5 1.5-1.5 1.5.7 1.5 1.5zm6 0c0 .9-.7 1-1.5 1-.9 0-1.5-.1-1.5-1s.7-1.5 1.5-1.5c.9 0 1.5.7 1.5 1.5z" fill="#ffe6bd" transform="matrix(26.3158 0 0 26.3158 39.4736 4.9999)"/></svg>

<?xml version="1.0" encoding="UTF-8" standalone="no"?>
<!DOCTYPE svg PUBLIC "-//W3C//DTD SVG 1.1//EN" "http://www.w3.org/Graphics/SVG/1.1/DTD/svg11.dtd">
<svg width="100%" height="100%" viewBox="0 0 500 500" version="1.1" xmlns="http://www.w3.org/2000/svg" xmlns:xlink="http://www.w3.org/1999/xlink" xml:space="preserve" xmlns:serif="http://www.serif.com/" style="fill-rule:evenodd;clip-rule:evenodd;stroke-linejoin:round;stroke-miterlimit:2;">
    <g transform="matrix(26.3158,0,0,26.3158,250,255)">
        <g transform="matrix(1,0,0,1,-8,-9.5)">
            <path d="M0.803,8.044C0.801,7.962 0.8,7.881 0.8,7.8C0.8,3.495 4.026,0 8,0C11.974,0 15.2,3.495 15.2,7.8C15.2,7.89 15.199,7.979 15.196,8.067C15.239,8.071 15.282,8.08 15.325,8.093C15.906,8.269 16.13,9.227 15.825,10.23C15.521,11.234 14.802,11.905 14.221,11.729L14.22,11.729C14.042,12.058 13.843,12.373 13.623,12.669C13.181,15.538 10.872,18.6 8,18.6C5.128,18.6 2.819,15.538 2.377,12.669C2.152,12.366 1.948,12.043 1.767,11.705L1.763,11.706C1.182,11.883 0.463,11.211 0.159,10.208C-0.146,9.204 0.079,8.246 0.659,8.07C0.707,8.056 0.755,8.047 0.803,8.044ZM10.3,14.5C10.3,15.8 9.3,14.5 8,14.5C6.7,14.5 5.7,15.8 5.7,14.5C5.7,13.2 6.7,12.2 8,12.2C9.3,12.2 10.3,13.2 10.3,14.5ZM6.4,8.9C6.4,9.8 5.7,9.9 4.9,9.9C4.1,9.9 3.4,9.8 3.4,8.9C3.4,8 4,7.4 4.9,7.4C5.8,7.4 6.4,8.1 6.4,8.9ZM12.4,8.9C12.4,9.8 11.7,9.9 10.9,9.9C10,9.9 9.4,9.8 9.4,8.9C9.4,8 10.1,7.4 10.9,7.4C11.8,7.4 12.4,8.1 12.4,8.9Z" style="fill:rgb(255,230,189);"/>
        </g>
    </g>
</svg>
